X:1
T:Title
%%score { 1 | 2 }
L:1/8
M:3/4
K:Bb
V:1 treble nm="Grand Piano"
V:2 bass 
V:1
 z2 z2[Q:1/4=100] [DF]2 | [DF]3 [Fd] [Fc][FB] | [FA]2 G2 B2 | A3 B cF |[M:2/4] [Fd]4 | %5
[M:1/4] [DF]2 |[M:3/4] [DF]3 [Fd] [Fc][FB] | [FA]2 [EG]2 [EG]2 | [=EG]3 [EA] [EB][Ec] | [Fc]6 | %10
 [Fd]3 [Fd] [Ge][Fd] | c6 | B3 B [Gc][Gc] | [^Fd]6 | [Fe]3 [Gd] [Gc][GB] |[M:7/8] A>G G2 F3 | %16
[M:4/4] Bc d2- d c3 |[M:3/4] [DB]6 |] %18
V:2
 z2 z2 [B,,B,]2 | [B,,B,]3 [B,,B,] [C,A,][D,B,] | [E,B,]2 [E,B,E]2 [E,G,E]2 | %3
 [F,E]3 [F,G,E] [F,A,E][F,A,E] |[M:2/4] [B,,B,]4 |[M:1/4] [B,,B,]2 | %6
[M:3/4] [B,,B,]3 [B,,B,] [C,A,][D,B,] | [E,B,]2 [E,B,]2 [E,B,]2 | [C,B,]3 [C,A,] [C,G,][C,B,] | %9
 [F,A,]6 | [B,,B,]3 [B,,B,] [B,,B,][B,,B,] | [F,A,E]6 | [G,B,D]3 [G,B,D] [E,B,][E,G,] | [D,A,]6 | %14
 [C,A,]3 [D,=B,] [E,C][=E,C] |[M:7/8] [F,CF]>[F,B,E] [F,B,E]2 [F,A,E]3 | %16
[M:4/4] [G,B,D][G,B,=E] [F,B,F]2- [F,B,F] [F,A,_E]3 |[M:3/4] [B,,B,]6 |] %18

